chrome/user_chrome_files/user_chrome/svg/prefs.svg

<svg xmlns="http://www.w3.org/2000/svg" width="16" height="16" viewBox="0 0 16 16">
<g style="fill:none;stroke:context-fill;stroke-opacity:context-fill-opacity;stroke-width:1.2;stroke-linecap:round;stroke-linejoin:round">
<path d="M8.66 15.4h-1.2c-.69 0-1.3-.5-1.5-1.2L5.58 13c-.26-.1-.51-.3-.76-.5l-1.41.4c-.65.1-1.37-.1-1.72-.8l-.6-.9c-.342-.7-.252-1.45.22-1.87l1-1v-.81l-.99-.97C.842 6.06.748 5.36 1.1 4.78l.6-.98c.34-.58 1.05-.87 1.7-.72l1.44.32c.26-.16.5-.3.74-.41l.38-1.27c.2-.64.81-1.089 1.5-1.091h1.2c.69 0 1.28.441 1.34 1.071l.4 1.3c.3.11.5.25.8.4l1.3-.32c.7-.15 1.5.14 1.8.72l.6.98c.4.57.3 1.28-.2 1.77l-1 .97v.81l1 1c.5.42.6 1.17.2 1.87l-.6.9c-.3.7-1.1.9-1.8.8l-1.3-.4c-.3.2-.5.4-.8.5l-.4 1.2c-.1.7-.64 1.2-1.34 1.2"/>
<circle cx="8" cy="8" r="2.4"/>
</g>
</svg>

<svg xmlns="http://www.w3.org/2000/svg" height="16" width="16">
<g style="fill:none;stroke:context-fill;stroke-opacity:context-fill-opacity;stroke-width:1.2;stroke-linecap:round;stroke-linejoin:round;">
<path d="m 8.66,15.4 h -1.2 c -0.69,0 -1.3,-0.5 -1.5,-1.2 L 5.58,13 C 5.32,12.9 5.07,12.7 4.82,12.5 L 3.41,12.9 C 2.76,13 2.04,12.8 1.69,12.1 L 1.09,11.2 C 0.748,10.5 0.838,9.75 1.31,9.33 l 1,-1 V 7.52 L 1.32,6.55 C 0.842,6.06 0.748,5.36 1.1,4.78 L 1.7,3.8 C 2.04,3.22 2.75,2.93 3.4,3.08 L 4.84,3.4 C 5.1,3.24 5.34,3.1 5.58,2.99 L 5.96,1.72 C 6.16,1.08 6.77,0.631 7.46,0.629 h 1.2 C 9.35,0.629 9.94,1.07 10,1.7 L 10.4,3 c 0.3,0.11 0.5,0.25 0.8,0.4 L 12.5,3.08 C 13.2,2.93 14,3.22 14.3,3.8 l 0.6,0.98 c 0.4,0.57 0.3,1.28 -0.2,1.77 l -1,0.97 v 0.81 l 1,1 c 0.5,0.42 0.6,1.17 0.2,1.87 l -0.6,0.9 C 14,12.8 13.2,13 12.5,12.9 l -1.3,-0.4 c -0.3,0.2 -0.5,0.4 -0.8,0.5 L 10,14.2 c -0.1,0.7 -0.64,1.2 -1.34,1.2 z"/>
<circle cx="8" cy="8" r="2.4"/>
</g>
</svg>
